components/icon/svg/24/action_giftcard.svg

<?xml version="1.0" encoding="UTF-8"?>
<svg width="24px" height="24px" viewBox="0 0 24 24" version="1.1" xmlns="http://www.w3.org/2000/svg" xmlns:xlink="http://www.w3.org/1999/xlink">
    <!-- Generator: Sketch 64 (93537) - https://sketch.com -->
    <title>ic-db_action_giftcard_24</title>
    <desc>Created with Sketch.</desc>
    <g id="Symbols:Icon" stroke="none" stroke-width="1" fill="none" fill-rule="evenodd">
        <g id="24dp-Icon/Action/Giftcard" fill="#282D37">
            <path d="M14.78125,2 C16.71875,2 18.3125,3.59108727 18.3125,5.49426205 C18.3125,6.05583988 18.15625,6.52377149 17.9375,7.02295178 L19.5,7.02295178 C20.875,7.02295178 22,8.14610744 22,9.4877044 L22,18.5040985 C22,19.8768443 20.875,21 19.5,21 L4.5,21 C3.125,21 2,19.8768443 2,18.5040985 L2,9.4877044 C2,8.14610744 3.125,7.02295178 4.5,7.02295178 L6.03125,7.02295178 C5.8125,6.52377149 5.6875,6.05583988 5.6875,5.49426205 C5.6875,3.59108727 7.25,2 9.1875,2 C10.34375,2 11.34375,2.56157783 11.96875,3.43514334 C12.625,2.56157783 13.65625,2 14.78125,2 Z M11,12.9819665 L4,12.9819665 L4,18.5040985 C4,18.7536887 4.21875,19.0032788 4.5,19.0032788 L11,19.0032788 L11,12.9819665 Z M20,12.9819665 L13,12.9819665 L13,19.0032788 L19.5,19.0032788 C19.78125,19.0032788 20,18.7536887 20,18.5040985 L20,12.9819665 Z M11,8.98852411 L4.5,8.98852411 C4.21875,8.98852411 4,9.20686557 4,9.4877044 L4,10.9852453 L11,10.9852453 L11,8.98852411 Z M19.5,8.98852411 L13,8.98852411 L13,10.9852453 L20,10.9852453 L20,9.4877044 C20,9.20686557 19.78125,8.98852411 19.5,8.98852411 Z M9.1875,3.99672117 C8.34375,3.99672117 7.6875,4.68309408 7.6875,5.49426205 C7.6875,6.33657888 8.34375,7.02295178 9.1875,7.02295178 C10,7.02295178 10.6875,6.33657888 10.6875,5.49426205 C10.6875,4.68309408 10,3.99672117 9.1875,3.99672117 Z M14.78125,3.99672117 C13.96875,3.99672117 13.28125,4.68309408 13.28125,5.49426205 C13.28125,6.33657888 13.96875,7.02295178 14.78125,7.02295178 C15.625,7.02295178 16.3125,6.33657888 16.3125,5.49426205 C16.3125,4.68309408 15.625,3.99672117 14.78125,3.99672117 Z" id="🎨-Color"></path>
        </g>
    </g>
</svg>

<svg width="24" height="24" xmlns="http://www.w3.org/2000/svg"><path d="M14.781 2c1.938 0 3.531 1.591 3.531 3.494 0 .562-.156 1.03-.375 1.529H19.5c1.375 0 2.5 1.123 2.5 2.465v9.016A2.505 2.505 0 0119.5 21h-15A2.505 2.505 0 012 18.504V9.488c0-1.342 1.125-2.465 2.5-2.465h1.531c-.218-.5-.343-.967-.343-1.529A3.511 3.511 0 019.188 2c1.156 0 2.156.562 2.78 1.435C12.626 2.562 13.657 2 14.782 2zM11 12.982H4v5.522c0 .25.219.5.5.5H11v-6.022zm9 0h-7v6.021h6.5c.281 0 .5-.25.5-.499v-5.522zm-9-3.993H4.5c-.281 0-.5.218-.5.499v1.497h7V8.99zm8.5 0H13v1.996h7V9.488c0-.281-.219-.5-.5-.5zM9.187 3.997a1.5 1.5 0 00-1.5 1.497c0 .843.657 1.529 1.5 1.529.813 0 1.5-.686 1.5-1.529a1.52 1.52 0 00-1.5-1.497zm5.594 0c-.812 0-1.5.686-1.5 1.497 0 .843.688 1.529 1.5 1.529.844 0 1.531-.686 1.531-1.529 0-.81-.687-1.497-1.53-1.497z" fill="#282D37" fill-rule="evenodd"/></svg>
